dist/svg/partner-add-o.svg

<svg width="16" height="16" viewBox="0 0 16 16" fill="rgb(34, 34, 34)" xmlns="http://www.w3.org/2000/svg"><title>partner-add-o</title><path d="M6.92002 7.25C6.85602 7.333 6.81702 7.439 6.81702 7.554C6.81702 7.709 6.88802 7.848 6.99902 7.94L7.00002 7.941L9.73002 10.001H10V8.941L7.60002 7.171C7.51802 7.11 7.41502 7.073 7.30302 7.073C7.15002 7.073 7.01202 7.142 6.92002 7.25Z" fill="rgb(34, 34, 34)" fill-opacity="1.00"/><path d="M8.16999 5.65998C8.10399 5.74398 8.06299 5.85198 8.06299 5.96898C8.06299 6.12098 8.13099 6.25798 8.23899 6.34998L8.23999 6.35098L9.66999 7.42098L9.74999 7.50098L9.98999 7.68098V7.07098L10.81 7.00098L8.85999 5.57098C8.77799 5.50898 8.67399 5.47198 8.56099 5.47198C8.40299 5.47198 8.26199 5.54498 8.16999 5.65998Z" fill="rgb(34, 34, 34)" fill-opacity="1.00"/><path d="M6.99999 11.25L4.44999 9.36001C4.00299 9.04401 3.61599 8.73501 3.24499 8.40701L3.25999 8.42001C2.39399 7.52701 1.64299 6.51501 1.03699 5.41201L0.999987 5.34001L3.55999 1.52001L4.08999 1.70001L4.69999 1.91001C4.48799 2.17901 4.35999 2.52301 4.35999 2.89601C4.35999 3.05101 4.38199 3.20001 4.42299 3.34101L4.41999 3.33001C4.51999 3.70401 4.74799 4.01401 5.05399 4.21601L5.05999 4.22001C5.23199 4.35101 5.44399 4.43801 5.67499 4.46001H5.67999L9.40999 4.73001L12.5 7.00001H14V8.72001C14.157 8.48301 14.254 8.19301 14.26 7.88201V7.88001C14.352 7.82201 14.428 7.74801 14.488 7.66301L14.49 7.66001C14.985 6.88001 15.464 5.97301 15.871 5.02801L15.92 4.90001C15.967 4.80001 15.995 4.68201 15.995 4.55801C15.995 4.36101 15.925 4.18001 15.809 4.03801L15.81 4.03901L12.75 0.329009C12.604 0.152009 12.385 0.0400085 12.139 0.0400085C12.031 0.0400085 11.928 0.0620085 11.834 0.101009L11.839 0.0990085C10.957 0.470009 9.89599 0.813009 8.80099 1.07101L8.65899 1.09901C8.22299 1.19401 7.72299 1.24901 7.20899 1.24901H6.37899C5.56099 1.05001 4.89399 0.844009 4.24199 0.605009L4.37899 0.649009L3.68899 0.509009H3.46899C3.19699 0.512009 2.95799 0.653009 2.82099 0.866009L2.81899 0.869009L0.148987 4.86901C0.0709868 4.99201 0.0239868 5.14301 0.0239868 5.30401C0.0239868 5.46501 0.0709868 5.61601 0.150987 5.74201L0.148987 5.73901C0.680987 6.72001 1.22399 7.55701 1.82499 8.34801L1.78899 8.29901C1.61899 8.52701 1.50999 8.80801 1.48899 9.11401V9.11901C1.48699 9.14901 1.48599 9.18501 1.48599 9.22001C1.48599 9.59601 1.61899 9.94201 1.84099 10.211L1.83899 10.208C2.01399 10.419 2.24499 10.579 2.50899 10.665L2.51899 10.668C2.48999 10.744 2.46599 10.835 2.44999 10.929L2.44899 10.938C2.44699 10.969 2.44599 11.005 2.44599 11.042C2.44599 11.421 2.57899 11.769 2.80199 12.041L2.79999 12.038C3.04099 12.336 3.39399 12.534 3.79499 12.568H3.79999H3.90999C4.04499 12.561 4.17099 12.536 4.28999 12.495L4.27999 12.498C4.33699 12.702 4.42899 12.879 4.55199 13.031L4.54999 13.028C4.77699 13.305 5.10999 13.489 5.48499 13.518H5.48999H5.57999C5.93199 13.517 6.25199 13.38 6.49099 13.157L6.48999 13.158L6.98999 12.698L6.99999 11.25ZM5.67999 2.42001C5.78099 2.38801 5.89699 2.37001 6.01699 2.37001C6.02899 2.37001 6.03999 2.37001 6.05199 2.37101H6.04999L7.24999 2.31101C7.83299 2.30701 8.39799 2.24201 8.94299 2.12101L8.88999 2.13101C10.117 1.85101 11.176 1.50801 12.191 1.08201L12.06 1.13101L15 4.60101C14.62 5.47801 14.249 6.20101 13.838 6.89701L13.89 6.80101C13.829 6.73601 13.764 6.67701 13.694 6.62401L13.69 6.62101C13.368 6.33701 13.016 6.06101 12.648 5.80601L12.61 5.78101L12.36 5.60101L10.8 4.47101L10.43 4.20101L10.11 3.95101C9.98999 3.82801 9.83199 3.74201 9.65499 3.71201L9.64999 3.71101L7.84999 3.58101L5.84999 3.43101C5.64899 3.40301 5.48799 3.25601 5.44099 3.06401L5.43999 3.06101C5.42099 3.00801 5.40899 2.94701 5.40899 2.88301C5.40899 2.68601 5.51699 2.51301 5.67699 2.42201L5.67999 2.42001ZM2.99999 9.75001C2.86999 9.74101 2.75599 9.67701 2.68099 9.58101L2.67999 9.58001C2.60399 9.48501 2.55799 9.36401 2.55799 9.23201C2.55799 9.21701 2.55899 9.20301 2.55999 9.18801V9.19001C2.55899 9.18101 2.55899 9.17101 2.55899 9.16001C2.55899 9.14901 2.55899 9.13901 2.55999 9.12901V9.13001C2.71999 9.28001 2.91999 9.45001 3.18999 9.66001C3.13699 9.70401 3.07299 9.73501 3.00299 9.75001H2.99999ZM4.25999 11.47C4.18199 11.544 4.07599 11.589 3.95999 11.59C3.82799 11.579 3.71399 11.511 3.64099 11.411L3.63999 11.41C3.52599 11.309 3.45299 11.163 3.44999 11.001V11C3.45699 10.854 3.52099 10.723 3.61999 10.63L3.90999 10.36L3.99999 10.31L4.81999 10.92L4.25999 11.47ZM5.86999 12.47C5.80999 12.526 5.72899 12.56 5.63999 12.56C5.53899 12.553 5.44999 12.504 5.39099 12.431L5.38999 12.43C5.32699 12.353 5.28899 12.254 5.28899 12.145C5.28899 12.133 5.28899 12.12 5.29099 12.108V12.11C5.29699 11.991 5.34999 11.886 5.43099 11.81L5.71099 11.55L6.36099 12.03L5.86999 12.47Z" fill="rgb(34, 34, 34)" fill-opacity="1.00"/><path d="M5.46997 8.43999C5.38497 8.52999 5.33197 8.65099 5.33197 8.78499C5.33197 8.91899 5.38497 9.03999 5.46997 9.12999L6.99997 10.24V9.99999H8.36997L6.15997 8.35999C6.07697 8.29599 5.97097 8.25699 5.85597 8.25699C5.70097 8.25699 5.56197 8.32899 5.46997 8.43999Z" fill="rgb(34, 34, 34)" fill-opacity="1.00"/><path d="M14.02 11H13V8H11V11H8V13H11V16H13V13H16V11H14.02Z" fill="rgb(34, 34, 34)" fill-opacity="1.00"/></svg>

<!-- Generated by Trend Micro Style Portal -->
<svg version="1.1" xmlns="http://www.w3.org/2000/svg" width="16" height="16" viewBox="0 0 16 16">
  <title>partner-add-o</title>
  <path fill="rgb(34,34,34)" d="M6.92 7.25c-0.064 0.083-0.103 0.189-0.103 0.304 0 0.155 0.071 0.294 0.182 0.386l0.001 0.001 2.73 2.060h0.27v-1.060l-2.4-1.77c-0.082-0.061-0.185-0.098-0.297-0.098-0.153 0-0.29 0.069-0.382 0.177l-0.001 0.001z"></path>
  <path fill="rgb(34,34,34)" d="M8.17 5.66c-0.066 0.084-0.107 0.192-0.107 0.309 0 0.152 0.068 0.289 0.176 0.381l0.001 0.001 1.43 1.070 0.080 0.080 0.24 0.18v-0.61l0.82-0.070-1.95-1.43c-0.082-0.062-0.186-0.099-0.299-0.099-0.158 0-0.299 0.073-0.391 0.188l-0.001 0.001z"></path>
  <path fill="rgb(34,34,34)" d="M7 11.25l-2.55-1.89c-0.447-0.316-0.834-0.625-1.205-0.953l0.015 0.013c-0.866-0.893-1.617-1.905-2.223-3.008l-0.037-0.072 2.56-3.82 0.53 0.18 0.61 0.21c-0.212 0.269-0.34 0.613-0.34 0.986 0 0.155 0.022 0.304 0.063 0.445l-0.003-0.011c0.1 0.374 0.328 0.684 0.634 0.886l0.006 0.004c0.172 0.131 0.384 0.218 0.615 0.24l0.005 0 3.73 0.27 3.090 2.27h1.5v1.72c0.157-0.237 0.254-0.527 0.26-0.838l0-0.002c0.092-0.058 0.168-0.132 0.228-0.217l0.002-0.003c0.495-0.78 0.974-1.687 1.381-2.632l0.049-0.128c0.047-0.1 0.075-0.218 0.075-0.342 0-0.197-0.070-0.378-0.186-0.52l0.001 0.001-3.060-3.71c-0.146-0.177-0.365-0.289-0.611-0.289-0.108 0-0.211 0.022-0.305 0.061l0.005-0.002c-0.882 0.371-1.943 0.714-3.038 0.972l-0.142 0.028c-0.436 0.095-0.936 0.15-1.45 0.15h-0.83c-0.818-0.199-1.485-0.405-2.137-0.644l0.137 0.044-0.69-0.14h-0.22c-0.272 0.003-0.511 0.144-0.648 0.357l-0.002 0.003-2.67 4c-0.078 0.123-0.125 0.274-0.125 0.435s0.047 0.312 0.127 0.438l-0.002-0.003c0.532 0.981 1.075 1.818 1.676 2.609l-0.036-0.049c-0.17 0.228-0.279 0.509-0.3 0.815l-0 0.005c-0.002 0.030-0.003 0.066-0.003 0.101 0 0.376 0.133 0.722 0.355 0.991l-0.002-0.003c0.175 0.211 0.406 0.371 0.67 0.457l0.010 0.003c-0.029 0.076-0.053 0.167-0.069 0.261l-0.001 0.009c-0.002 0.031-0.003 0.067-0.003 0.104 0 0.379 0.133 0.727 0.356 0.999l-0.002-0.003c0.241 0.298 0.594 0.496 0.995 0.53l0.005 0h0.11c0.135-0.007 0.261-0.032 0.38-0.073l-0.010 0.003c0.057 0.204 0.149 0.381 0.272 0.533l-0.002-0.003c0.227 0.277 0.56 0.461 0.935 0.49l0.005 0h0.090c0.352-0.001 0.672-0.138 0.911-0.361l-0.001 0.001 0.5-0.46zM5.68 2.42c0.101-0.032 0.217-0.050 0.337-0.050 0.012 0 0.023 0 0.035 0.001l-0.002-0 1.2-0.060c0.583-0.004 1.148-0.069 1.693-0.19l-0.053 0.010c1.227-0.28 2.286-0.623 3.301-1.049l-0.131 0.049 2.94 3.47c-0.38 0.877-0.751 1.6-1.162 2.296l0.052-0.096c-0.061-0.065-0.126-0.124-0.196-0.177l-0.004-0.003c-0.322-0.284-0.674-0.56-1.042-0.815l-0.038-0.025-0.25-0.18-1.56-1.13-0.37-0.27-0.32-0.25c-0.12-0.123-0.278-0.209-0.455-0.239l-0.005-0.001-1.8-0.13-2-0.15c-0.201-0.028-0.362-0.175-0.409-0.367l-0.001-0.003c-0.019-0.053-0.031-0.114-0.031-0.178 0-0.197 0.108-0.37 0.268-0.461l0.003-0.001zM3 9.75v0c-0.13-0.009-0.244-0.073-0.319-0.169l-0.001-0.001c-0.076-0.095-0.122-0.216-0.122-0.348 0-0.015 0.001-0.029 0.002-0.044l-0 0.002c-0.001-0.009-0.001-0.019-0.001-0.030s0-0.021 0.001-0.031l-0 0.001c0.16 0.15 0.36 0.32 0.63 0.53-0.053 0.044-0.117 0.075-0.187 0.090l-0.003 0zM4.26 11.47c-0.078 0.074-0.184 0.119-0.3 0.12h-0c-0.132-0.011-0.246-0.079-0.319-0.179l-0.001-0.001c-0.114-0.101-0.187-0.247-0.19-0.409l-0-0.001c0.007-0.146 0.071-0.277 0.17-0.37l0.29-0.27 0.090-0.050 0.82 0.61zM5.87 12.47c-0.060 0.056-0.141 0.090-0.23 0.090h-0c-0.101-0.007-0.19-0.056-0.249-0.129l-0.001-0.001c-0.063-0.077-0.101-0.176-0.101-0.285 0-0.012 0-0.025 0.002-0.037l-0 0.002c0.006-0.119 0.059-0.224 0.14-0.3l0-0 0.28-0.26 0.65 0.48z"></path>
  <path fill="rgb(34,34,34)" d="M5.47 8.44c-0.085 0.090-0.138 0.211-0.138 0.345s0.053 0.255 0.138 0.345l-0-0 1.53 1.11v-0.24h1.37l-2.21-1.64c-0.083-0.064-0.189-0.103-0.304-0.103-0.155 0-0.294 0.071-0.386 0.182l-0.001 0.001z"></path>
  <path fill="rgb(34,34,34)" d="M14.020 11h-1.020v-3h-2v3h-3v2h3v3h2v-3h3v-2h-1.98z"></path>
</svg>
